X:25
T:Arnold's Circle
T:Onder een Linde Groen
S:Colin Hume's website,  colinhume.com  - chords can also be printed below the stave.
Q:1/2=112
M:2/2
L:1/8
N:This is the tune for "Arnold's Circle" by Cor Hogendijk, published in English or Double Dutch, 1973.
N:It's a notier version of Playford's "All in a Garden Green" which Sharp used for "Maid in the Moon".
N:Barnes 2 has a different tune to a different rhythm with a different number of bars.
K:G
P:A
|: "G"d3e "D/F#"d2c2 | "Em"BABc "G/D"d2d2 | "C"e2d2 "Am"c2B2 | "D"AGAB "/"A4 |
"C"cBcd "/"efg2 | "G"GFGA "/"Bcd2 | "Am"cdcB "D7"A3G | "G"G4- "/"G4 :|
P:B
|: "G"dcde "/"d2d2 | "C"edef "G"g4 | "Em"BABc "/"B2B2 | "Am"AGAB "D7"c4 |
"G"B3A "/"GABG | "Am"c3B "/"ABcA | "Bm"d3c "/"BcdB | "C"e3d "/"cdBc |\
"Am"A2B2 "D"A3G | "G"G6z2 :|

